images/noun_project_1751.svg

<svg xmlns="http://www.w3.org/2000/svg" xmlns:xlink="http://www.w3.org/1999/xlink" version="1.1" id="Layer_1" x="0px" y="0px" width="100.0px" height="100px" viewBox="0 0 113.39 113.39" enable-background="new 0 0 113.39 113.39" xml:space="preserve">
<g>
	<defs>
		<rect id="SVGID_1_" x="0.111" width="113.385" height="113.387"/>
	</defs>
	<clipPath id="SVGID_2_">
		<use xlink:href="#SVGID_1_" overflow="visible"/>
	</clipPath>
	<path clip-path="url(#SVGID_2_)" d="M108.812,104.713h-5.795L61.285,23.899l8.812-17.064c1.097-2.126,0.241-4.727-1.913-5.81   c-2.154-1.083-4.791-0.238-5.89,1.888l-5.924,11.47l-5.923-11.47c-1.098-2.126-3.736-2.968-5.889-1.888   c-2.155,1.083-3.011,3.685-1.914,5.811l8.812,17.064L9.724,104.713H4.795c-2.418,0-4.378,1.933-4.378,4.319   c0,2.386,1.96,4.319,4.378,4.319h104.017c2.418,0,4.378-1.934,4.378-4.319C113.19,106.646,111.23,104.713,108.812,104.713z    M40.385,104.713L49.3,87.447l7.49-13.462l7.515,13.599l8.844,17.129H40.385z M82.674,104.123L72.08,83.609   c-0.02-0.036-0.038-0.072-0.058-0.107L60.646,62.916c-0.766-1.385-2.236-2.25-3.837-2.252c-0.002,0-0.004,0-0.006,0   c-1.598,0-3.069,0.859-3.838,2.241L41.591,83.348c-0.021,0.039-0.042,0.078-0.063,0.117L30.934,103.98   c-0.123,0.238-0.213,0.484-0.288,0.732H19.552L56.37,33.416l36.818,71.297H82.905C82.838,104.515,82.771,104.316,82.674,104.123z"/>
</g>
</svg>

<?xml version="1.0" encoding="UTF-8" standalone="no"?>
<!-- Created with Inkscape (http://www.inkscape.org/) -->

<svg
   xmlns:dc="http://purl.org/dc/elements/1.1/"
   xmlns:cc="http://creativecommons.org/ns#"
   xmlns:rdf="http://www.w3.org/1999/02/22-rdf-syntax-ns#"
   xmlns:svg="http://www.w3.org/2000/svg"
   xmlns="http://www.w3.org/2000/svg"
   xmlns:xlink="http://www.w3.org/1999/xlink"
   version="1.1"
   width="100"
   height="100"
   viewBox="0 0 113.39 113.39"
   id="Layer_1"
   xml:space="preserve"><metadata
   id="metadata27159"><rdf:RDF><cc:Work
       rdf:about=""><dc:format>image/svg+xml</dc:format><dc:type
         rdf:resource="http://purl.org/dc/dcmitype/StillImage" /><dc:title></dc:title></cc:Work></rdf:RDF></metadata><defs
   id="defs27157" />
<g
   id="g27145"
   style="fill:#000000;fill-opacity:1">
	<defs
   id="defs27147">
		<rect
   width="113.385"
   height="113.387"
   x="0.111"
   y="0"
   id="SVGID_1_" />
	</defs>
	<clipPath
   id="SVGID_2_">
		<use
   id="use27151"
   style="overflow:visible"
   x="0"
   y="0"
   width="113.39"
   height="113.39"
   xlink:href="#SVGID_1_" />
	</clipPath>
	<path
   d="m 108.812,104.713 h -5.795 L 61.285,23.899 70.097,6.835 C 71.194,4.709 70.338,2.108 68.184,1.025 66.03,-0.058 63.393,0.787 62.294,2.913 L 56.37,14.383 50.447,2.913 C 49.349,0.787 46.711,-0.055 44.558,1.025 42.403,2.108 41.547,4.71 42.644,6.836 L 51.456,23.9 9.724,104.713 H 4.795 c -2.418,0 -4.378,1.933 -4.378,4.319 0,2.386 1.96,4.319 4.378,4.319 h 104.017 c 2.418,0 4.378,-1.934 4.378,-4.319 0,-2.386 -1.96,-4.319 -4.378,-4.319 z m -68.427,0 8.915,-17.266 7.49,-13.462 7.515,13.599 8.844,17.129 H 40.385 z M 82.674,104.123 72.08,83.609 C 72.06,83.573 72.042,83.537 72.022,83.502 L 60.646,62.916 c -0.766,-1.385 -2.236,-2.25 -3.837,-2.252 -0.002,0 -0.004,0 -0.006,0 -1.598,0 -3.069,0.859 -3.838,2.241 L 41.591,83.348 c -0.021,0.039 -0.042,0.078 -0.063,0.117 L 30.934,103.98 c -0.123,0.238 -0.213,0.484 -0.288,0.732 H 19.552 L 56.37,33.416 93.188,104.713 H 82.905 c -0.067,-0.198 -0.134,-0.397 -0.231,-0.59 z"
   clip-path="url(#SVGID_2_)"
   id="path27153"
   style="fill:#000000;fill-opacity:1" />
</g>
</svg>
